X:0787
T:Bush aboon Traquair.
M:C
L:1/8
Q:1/4=80 "Slow"
I: :: :|
Z:Jack Campin * www.campin.me.uk * 2009
K:D
D2 | F2 A2    d3  e |Te>d (e/f/g/f/)  e3E| F2 A2  f>edB | A4     {d}D2
D>E| F2 A2    d3  f | e>d (e3/f//g//) e3E| F2 A2 (f>edB)| A4     {d}D2   :|
d2 |(c>B)AB   cd`ef |(g>a)(f>g)       e3A|(d>efg) a>bag |(f>g)(ag   fe)d>e|
    (c>B`AB) (c>def)| g>a (b/a/g/f/)  e3E| F2 A2  f>edB | A4     {d}D2   :|

